X:101
T:Kingfisher 1
M:4/4
L:1/8
K:G
GA Bc d2 G2 | g2 fe d2 B2 | cB ce de dc | BA Bc e2 d2 |
GA Bc d2 G2 | g2 fe d2 B2 | cB ce de dc | B2 A2 G4 :||
d3 c B3 c | dBcd e4 | e3 d c3 d | eA Bc e2 d2 |
B3 A G3 A | BG AB c4 | cB ce de dc | B2 A2 G4 :||
